packages/core/src/svgs/ubt.svg

<svg width="24" height="24" viewBox="0 0 24 24" fill="none" xmlns="http://www.w3.org/2000/svg">
<g clip-path="url(#clip0_31_20128)">
<path d="M0 0H24V24H0V0Z" fill="url(#paint0_linear_31_20128)"/>
<path d="M18.8571 6.85735L17.1428 5.14307H10.2857V16.2859H7.71425V6.85735H5.14282V17.1431L6.85711 18.8574H11.1428L12.8571 17.1431H17.1428L18.8571 15.4288V12.0002L18 11.1431L18.8571 10.2859V6.85735ZM12.8571 7.7145H16.2857V10.2859H12.8571V7.7145ZM16.2857 14.5716H12.8571V12.0002H16.2857V14.5716Z" fill="white"/>
</g>
<defs>
<linearGradient id="paint0_linear_31_20128" x1="20.6529" y1="3.38143" x2="3.69429" y2="20.4471" gradientUnits="userSpaceOnUse">
<stop stop-color="#F5E710"/>
<stop offset="0.22" stop-color="#4DB15A"/>
<stop offset="0.45" stop-color="#00A09A"/>
<stop offset="0.71" stop-color="#1E548A"/>
<stop offset="1" stop-color="#DA1E74"/>
</linearGradient>
<clipPath id="clip0_31_20128">
<rect width="24" height="24" fill="white"/>
</clipPath>
</defs>
</svg>

<svg xmlns="http://www.w3.org/2000/svg" width="24" height="24" fill="none" viewBox="0 0 24 24"><g clip-path="url(#a)"><path fill="url(#b)" d="M0 0h24v24H0z"/><path fill="#fff" d="m18.857 6.857-1.714-1.714h-6.857v11.143H7.714V6.857H5.143v10.286l1.714 1.714h4.286l1.714-1.714h4.286l1.714-1.714V12L18 11.143l.857-.857zm-6 .857h3.429v2.572h-3.429zm3.429 6.858h-3.429V12h3.429z"/></g><defs><linearGradient id="b" x1="20.653" x2="3.694" y1="3.381" y2="20.447" gradientUnits="userSpaceOnUse"><stop stop-color="#F5E710"/><stop offset=".22" stop-color="#4DB15A"/><stop offset=".45" stop-color="#00A09A"/><stop offset=".71" stop-color="#1E548A"/><stop offset="1" stop-color="#DA1E74"/></linearGradient><clipPath id="a"><path fill="#fff" d="M0 0h24v24H0z"/></clipPath></defs></svg>
